svgs/sharp-light/champagne-glass.svg

<svg xmlns="http://www.w3.org/2000/svg" viewBox="0 0 320 512"><!--! Font Awesome Pro 6.6.0 by @fontawesome - https://fontawesome.com License - https://fontawesome.com/license (Commercial License) Copyright 2024 Fonticons, Inc. --><path d="M74.5 160l171 0 7.3 53.6C260.5 269.9 216.8 320 160 320s-100.5-50.1-92.8-106.4L74.5 160zm4.4-32L91.9 32l136.1 0 13.1 96L78.8 128zM64 0L35.5 209.3C25.9 279.4 75.8 342.4 144 351l0 129-64 0-16 0 0 32 16 0 80 0 80 0 16 0 0-32-16 0-64 0 0-129c68.2-8.6 118.1-71.6 108.5-141.7L256 0 64 0z"/></svg>

<svg xmlns="http://www.w3.org/2000/svg" viewBox="0 0 320 512"><!--! Font Awesome Pro 6.4.2 by @fontawesome - https://fontawesome.com License - https://fontawesome.com/license (Commercial License) Copyright 2023 Fonticons, Inc. --><path d="M74.5 160h171l7.3 53.6C260.5 269.9 216.8 320 160 320s-100.5-50.1-92.8-106.4L74.5 160zm4.4-32L91.9 32H228.1l13.1 96H78.8zM64 0L35.5 209.3C25.9 279.4 75.8 342.4 144 351V480H80 64v32H80h80 80 16V480H240 176V351c68.2-8.6 118.1-71.6 108.5-141.7L256 0H64z"/></svg>
